img/image/logo.svg

<svg width="238" height="54" viewBox="0 0 238 54" fill="none" xmlns="http://www.w3.org/2000/svg">
<path d="M33.8691 27.0786C33.8691 30.8407 33.1376 34.0143 31.6745 36.5994C30.2115 39.1735 28.2369 41.126 25.7508 42.4571C23.2648 43.7771 20.4927 44.4372 17.4346 44.4372C14.3545 44.4372 11.5714 43.7716 9.08527 42.4406C6.61019 41.0985 4.64112 39.1405 3.17807 36.5664C1.72602 33.9813 1 30.8187 1 27.0786C1 23.3164 1.72602 20.1483 3.17807 17.5742C4.64112 14.9892 6.61019 13.0366 9.08527 11.7165C11.5714 10.3855 14.3545 9.71997 17.4346 9.71997C20.4927 9.71997 23.2648 10.3855 25.7508 11.7165C28.2369 13.0366 30.2115 14.9892 31.6745 17.5742C33.1376 20.1483 33.8691 23.3164 33.8691 27.0786ZM24.4308 27.0786C24.4308 25.0545 24.1613 23.3494 23.6223 21.9634C23.0943 20.5663 22.3077 19.5103 21.2627 18.7953C20.2287 18.0693 18.9526 17.7062 17.4346 17.7062C15.9165 17.7062 14.635 18.0693 13.5899 18.7953C12.5559 19.5103 11.7694 20.5663 11.2303 21.9634C10.7023 23.3494 10.4383 25.0545 10.4383 27.0786C10.4383 29.1026 10.7023 30.8132 11.2303 32.2102C11.7694 33.5963 12.5559 34.6523 13.5899 35.3783C14.635 36.0934 15.9165 36.4509 17.4346 36.4509C18.9526 36.4509 20.2287 36.0934 21.2627 35.3783C22.3077 34.6523 23.0943 33.5963 23.6223 32.2102C24.1613 30.8132 24.4308 29.1026 24.4308 27.0786Z" fill="#539AC1"/>
<path d="M38.2459 43.9751V38.893L54.2184 17.5742H38.3119V10.182H65.9008V15.2642L49.9283 36.5829H65.8348V43.9751H38.2459Z" fill="#539AC1"/>
<path d="M69.4526 17.5742V10.182H98.8236V17.5742H88.6592V43.9751H79.6169V17.5742H69.4526Z" fill="#2D2D2D"/>
<path d="M102.276 43.9751V10.182H126.631V17.5742H111.451V23.3824H125.377V30.7747H111.451V36.5829H126.565V43.9751H102.276Z" fill="#2D2D2D"/>
<path d="M131.181 43.9751V10.182H145.768C148.276 10.182 150.47 10.677 152.351 11.667C154.232 12.6571 155.696 14.0486 156.741 15.8417C157.786 17.6347 158.308 19.7303 158.308 22.1284C158.308 24.5485 157.769 26.644 156.691 28.4151C155.624 30.1862 154.122 31.5502 152.186 32.5072C150.261 33.4643 147.754 33.48 145.18 33.48H137.08V30.24V27H140.355H143.56C144.638 27 145.586 26.6275 146.345 26.2535C147.115 25.8685 147.704 25.324 148.111 24.62C148.529 23.916 148.738 23.0854 148.738 22.1284C148.738 21.1604 148.529 20.3353 148.111 19.6533C147.704 18.9603 147.115 18.4323 146.345 18.0693C145.586 17.6952 144.668 17.5082 143.59 17.5082H140.355V43.9751H131.181Z" fill="#2D2D2D"/>
<path d="M161.674 10.182H173.093L180.947 29.3226H181.343L189.197 10.182H200.616V43.9751H191.639V24.4385H191.375L183.851 43.7111H178.439L170.915 24.3065H170.651V43.9751H161.674V10.182Z" fill="#2D2D2D"/>
<path d="M237.701 27.0786C237.701 30.8407 236.969 34.0143 235.506 36.5994C234.043 39.1735 232.068 41.126 229.582 42.4571C227.096 43.7771 224.324 44.4372 221.266 44.4372C218.186 44.4372 215.403 43.7716 212.917 42.4406C210.442 41.0985 208.473 39.1405 207.01 36.5664C205.557 33.9813 204.831 30.8187 204.831 27.0786C204.831 23.3164 205.557 20.1483 207.01 17.5742C208.473 14.9892 210.442 13.0366 212.917 11.7165C215.403 10.3855 218.186 9.71997 221.266 9.71997C224.324 9.71997 227.096 10.3855 229.582 11.7165C232.068 13.0366 234.043 14.9892 235.506 17.5742C236.969 20.1483 237.701 23.3164 237.701 27.0786ZM228.262 27.0786C228.262 25.0545 227.993 23.3494 227.454 21.9634C226.926 20.5663 226.139 19.5103 225.094 18.7953C224.06 18.0693 222.784 17.7062 221.266 17.7062C219.748 17.7062 218.466 18.0693 217.421 18.7953C216.387 19.5103 215.601 20.5663 215.062 21.9634C214.534 23.3494 214.27 25.0545 214.27 27.0786C214.27 29.1026 214.534 30.8132 215.062 32.2102C215.601 33.5963 216.387 34.6523 217.421 35.3783C218.466 36.0934 219.748 36.4509 221.266 36.4509C222.784 36.4509 224.06 36.0934 225.094 35.3783C226.139 34.6523 226.926 33.5963 227.454 32.2102C227.993 30.8132 228.262 29.1026 228.262 27.0786Z" fill="#2D2D2D"/>
<rect width="238" height="2" fill="#2D2D2D"/>
<rect y="52" width="238" height="2" fill="#2D2D2D"/>
<rect x="137.08" y="27" width="4.32" height="6.48" fill="#2D2D2D"/>
</svg>

<svg width="238" height="54" fill="none" xmlns="http://www.w3.org/2000/svg"><path d="M33.87 27.079c0 3.762-.732 6.935-2.195 9.52-1.463 2.575-3.438 4.527-5.924 5.858-2.486 1.32-5.258 1.98-8.316 1.98-3.08 0-5.864-.665-8.35-1.996-2.475-1.343-4.444-3.3-5.907-5.875C1.726 33.981 1 30.82 1 27.08c0-3.763.726-6.93 2.178-9.505 1.463-2.585 3.432-4.537 5.907-5.858 2.486-1.33 5.27-1.996 8.35-1.996 3.058 0 5.83.665 8.316 1.996 2.486 1.32 4.46 3.273 5.923 5.858 1.464 2.574 2.195 5.742 2.195 9.505Zm-9.44 0c0-2.024-.269-3.73-.808-5.116-.528-1.397-1.314-2.453-2.36-3.168-1.033-.726-2.31-1.089-3.827-1.089-1.518 0-2.8.363-3.845 1.09-1.034.714-1.82 1.77-2.36 3.167-.528 1.386-.792 3.091-.792 5.116 0 2.024.264 3.734.792 5.131.54 1.386 1.326 2.442 2.36 3.168 1.045.715 2.326 1.073 3.845 1.073 1.518 0 2.794-.358 3.828-1.073 1.045-.726 1.831-1.782 2.36-3.168.538-1.397.808-3.107.808-5.131ZM38.246 43.975v-5.082l15.972-21.319H38.312v-7.392H65.9v5.082L49.928 36.583h15.907v7.392h-27.59Z" fill="#539AC1"/><path d="M69.453 17.574v-7.392h29.37v7.392H88.66v26.401h-9.042v-26.4H69.453ZM102.276 43.975V10.182h24.355v7.392h-15.18v5.808h13.926v7.393h-13.926v5.808h15.114v7.392h-24.289ZM131.181 43.975V10.182h14.587c2.508 0 4.702.495 6.583 1.485 1.881.99 3.345 2.382 4.39 4.175 1.045 1.793 1.567 3.888 1.567 6.286 0 2.42-.539 4.516-1.617 6.287-1.067 1.771-2.569 3.135-4.505 4.092-1.925.957-4.432.973-7.006.973h-8.1V27h6.48c1.078 0 2.026-.372 2.785-.747.77-.384 1.359-.929 1.766-1.633.418-.704.627-1.535.627-2.492 0-.968-.209-1.793-.627-2.475-.407-.693-.996-1.22-1.766-1.584-.759-.374-1.677-.56-2.755-.56h-3.235v26.466h-9.174ZM161.674 10.182h11.419l7.854 19.14h.396l7.854-19.14h11.419v33.793h-8.977V24.438h-.264l-7.524 19.273h-5.412l-7.524-19.404h-.264v19.668h-8.977V10.182ZM237.701 27.079c0 3.762-.732 6.935-2.195 9.52-1.463 2.575-3.438 4.527-5.924 5.858-2.486 1.32-5.258 1.98-8.316 1.98-3.08 0-5.863-.665-8.349-1.996-2.475-1.343-4.444-3.3-5.907-5.875-1.453-2.585-2.179-5.747-2.179-9.487 0-3.763.726-6.93 2.179-9.505 1.463-2.585 3.432-4.537 5.907-5.858 2.486-1.33 5.269-1.996 8.349-1.996 3.058 0 5.83.665 8.316 1.996 2.486 1.32 4.461 3.273 5.924 5.858 1.463 2.574 2.195 5.742 2.195 9.505Zm-9.439 0c0-2.024-.269-3.73-.808-5.116-.528-1.397-1.315-2.453-2.36-3.168-1.034-.726-2.31-1.089-3.828-1.089-1.518 0-2.8.363-3.845 1.09-1.034.714-1.82 1.77-2.359 3.167-.528 1.386-.792 3.091-.792 5.116 0 2.024.264 3.734.792 5.131.539 1.386 1.325 2.442 2.359 3.168 1.045.715 2.327 1.073 3.845 1.073 1.518 0 2.794-.358 3.828-1.073 1.045-.726 1.832-1.782 2.36-3.168.539-1.397.808-3.107.808-5.131ZM0 0h238v2H0zM0 52h238v2H0z" fill="#2D2D2D"/><path fill="#2D2D2D" d="M137.08 27h4.32v6.48h-4.32z"/></svg>
